X:195
T:Ramble away - Parsons
%%VWML:SBG-1-2-442-0
F:http://www.vwml.org/record/SBG/1/2/442
Z:Original Sibelius transcriptions by M. & S. Graebe
M:6/8
I:linebreak $
K:G
V:1 treble nm="P1"
V:1
 D | DEF GBG | AGE D2 A | edB ABc | dcB A2 B/c/ |$ ecB cBc | dcB A2 B | AGE DEG | EDD D3 | %9
T:Ramble away - Kidson
F:http://www.vwml.org/record/SBG/1/2/442
Z:Original Sibelius transcriptions by M. & S. Graebe
M:6/8
I:linebreak $
K:G
V:1 treble nm="P1"
V:1
 d | B G G E A A | D E F G2 G/ G/ | B c d (gf) g | A B c d2 d |$ d B d g f g | e d B d2 d/ d/ | %7
 B G G E A A | D E F G2 x | %9
T:Ramble away - Fone
F:http://www.vwml.org/record/SBG/1/2/442
Z:Original Sibelius transcriptions by M. & S. Graebe
M:6/8
I:linebreak $
K:D
V:1 treble nm="P1"
V:1
 A | AFE DDD | GFD D2 A | ABc dBF | GAB A2 A | ABc dAG | GAB =cBc |$ AFE DEF | GFD D3 | ABc d2 B | %10
 GAB =cBc | AFE D DF | GFD D3- | D3 x3 | %14




